X:1
T:Title
%%score { 1 | 2 }
L:1/8
M:6/8
K:F
V:1 treble nm="Grand Piano"
V:2 bass 
V:1
 z3 z2[Q:1/4=105] [A,C] | [CFA]3 [DFB]2 [CFA] | [B,CG] [A,CF]2- [A,CF]2[K:bass] [A,C] | %3
 [F,A,C]3[K:treble] [A,CF]2 [B,CEG] | [CFA]3- [CFA]2 [A,C] | [CFA]3 [DFB]2 [CFA] | %6
 [B,CG] [A,CF]2- [A,CF]2[K:bass] [A,C] | [F,A,C]3[K:treble] [A,CF]2 [B,CEG] | %8
 [A,CF]3- [A,CF]2 [CAc] | [CAc]3 [CGB]2 [CFA] | [CFA] [CEG]2- [CEG]2 [CGB] | [CGB]3 [CFA]2 [A,EG] | %12
 [A,DF]3- [A,DF]2 [A,_EF] | [B,DF]3[K:bass] [B,CE]2 [F,B,D] | [A,C] [A,CF]2- [A,CF]2 [A,DF] | %15
 [A,CF] [CFA]2- [CFA]2 [B,CEG] | [A,CF]6 | [DFB] [DFB]2- [DFB]2 [EFB] | [DFB]6 | %19
 [CFA] [CFA]2- [CFA]2 [FA] | [CFA]3- [CFA]2 [CFc] | [df]3 [Fce]2 [FBd] | %22
 [A,CFAc] [CFA]2- [CFA]2 [=B,FG] | [CFA] [CFA]2- [CFA]2 [B,CEG] |[M:5/8] [A,CF]-[A,CF]- [A,CF]3 |] %25
V:2
 z3 z2 [F,,F,] | [F,,F,]3 [F,,F,]2 [F,,F,] | [F,,F,] [F,,F,]2- [F,,F,]2 [F,,F,] | %3
 [C,,C,]3 [C,,C,]2 [C,,C,] | [F,,F,]3- [F,,F,]2 [F,,F,] | [F,,F,]3 [F,,F,]2 [F,,F,] | %6
 [F,,F,] [F,,F,]2- [F,,F,]2 [F,,F,] | [C,,C,]3 [C,,C,]2 [C,,C,] | [F,,F,]3- [F,,F,]2 [F,,F,] | %9
 [F,,F,]3 [F,,F,]2 [F,,F,] | [C,,C,] [C,,C,]2- [C,,C,]2 [C,,C,] | [C,,C,]3 [C,,C,]2 [^C,,^C,] | %12
 [D,,D,]3- [D,,D,]2 [C,,C,] | [B,,,B,,]3 [B,,,B,,]2 [B,,,B,,] | %14
 [F,,F,] [F,,F,]2- [F,,F,]2 [F,,D,] | [C,,C,] [C,,C,]2- [C,,C,]2 [C,,C,] | [F,,F,]6 | %17
 [F,,F,] [F,,F,]2- [F,,F,]2 [F,,F,] | [F,,F,]6 | [F,,F,] [F,,F,]2- [F,,F,]2 [F,C] | %20
 [F,,F,]3- [F,,F,]2 [A,,F,] | [B,,DF]3 [B,,C]2 [B,,B,] | [F,,F,] [F,,F,]2- [F,,F,]2 [D,,D,] | %23
 [C,,C,] [C,,C,]2- [C,,C,]2 [C,,C,] |[M:5/8] [F,,F,]-[F,,F,]- [F,,F,]3 |] %25

